src/lib/packages/icons/src/assets/line/menu-right-circle.svg

<svg width="24" height="24" viewBox="0 0 24 24" fill="none" xmlns="http://www.w3.org/2000/svg">
<path d="M16 9.75H8C7.586 9.75 7.25 9.414 7.25 9C7.25 8.586 7.586 8.25 8 8.25H16C16.414 8.25 16.75 8.586 16.75 9C16.75 9.414 16.414 9.75 16 9.75ZM16.75 12C16.75 11.586 16.414 11.25 16 11.25H8C7.586 11.25 7.25 11.586 7.25 12C7.25 12.414 7.586 12.75 8 12.75H16C16.414 12.75 16.75 12.414 16.75 12ZM16.75 15C16.75 14.586 16.414 14.25 16 14.25H12C11.586 14.25 11.25 14.586 11.25 15C11.25 15.414 11.586 15.75 12 15.75H16C16.414 15.75 16.75 15.414 16.75 15ZM22.75 12C22.75 6.072 17.928 1.25 12 1.25C6.072 1.25 1.25 6.072 1.25 12C1.25 17.928 6.072 22.75 12 22.75C17.928 22.75 22.75 17.928 22.75 12ZM21.25 12C21.25 17.101 17.101 21.25 12 21.25C6.899 21.25 2.75 17.101 2.75 12C2.75 6.899 6.899 2.75 12 2.75C17.101 2.75 21.25 6.899 21.25 12Z" fill="currentColor"/>
</svg>

<svg xmlns="http://www.w3.org/2000/svg" width="24" height="24" fill="none"><path fill="currentColor" d="M16 9.75H8a.75.75 0 0 1 0-1.5h8a.75.75 0 0 1 0 1.5Zm.75 2.25a.75.75 0 0 0-.75-.75H8a.75.75 0 0 0 0 1.5h8a.75.75 0 0 0 .75-.75Zm0 3a.75.75 0 0 0-.75-.75h-4a.75.75 0 0 0 0 1.5h4a.75.75 0 0 0 .75-.75Zm6-3c0-5.928-4.822-10.75-10.75-10.75S1.25 6.072 1.25 12 6.072 22.75 12 22.75 22.75 17.928 22.75 12Zm-1.5 0c0 5.101-4.149 9.25-9.25 9.25S2.75 17.101 2.75 12 6.899 2.75 12 2.75s9.25 4.149 9.25 9.25Z"/></svg>
